!!!!SEGMENT: pl-kk--kk-i-15--011_asola-giovanni-matteo--ecce-sacerdos-magnus.krn
!!!cenid: 16xx:1128
!!!COM: Asola, Giovanni Matteo
!!!COM-rismid: pe20000387
!!!CDT: <=1532-1609/10/01
!!!CNT: Italian
!!!OTL: Ecce sacerdos magnus
!!!PDT:
!!!AGN: Sacred
!!!SMS-siglum: PL-Kk
!!!SMS-shelfmark: Kk.I.15
!!!SMS-shelfwork: 011 W
!!!SMS-variant:
!!!SMS-altvar:
!!!NIFC-rismid: 1001147280
!!!URL-scan: http://repozytorium.nifc.pl/skany/pl-kk-nut--i-15
!!!ONB-nifc: UWAGA: C (skan 0008), A (skan 0025-0026), T (skan 0042-0043), B (skan 0060-0061). Następny motet: Beatus vir
**kern	**text	**kern	**text	**kern	**text	**kern	**text
*part4	*part4	*part3	*part3	*part2	*part2	*part1	*part1
*staff4	*staff4	*staff3	*staff3	*staff2	*staff2	*staff1	*staff1
*group1	*	*group1	*	*group1	*	*group1	*
*Iempty	*	*Itenor	*	*Ialto	*	*Ivox	*
*I"Baſso	*	*I"Tenore.	*	*I"Alto	*	*I"Canto.	*
*I'B	*	*I'T	*	*I'A	*	*I'S	*
*clefF3	*	*clefC3	*	*clefC3	*	*clefC2	*
*k[]	*	*k[]	*	*k[]	*	*k[]	*
*C:	*	*C:	*	*C:	*	*C:	*
*M2/1	*	*M2/1	*	*M2/1	*	*M2/1	*
*met(C|)	*	*met(C|)	*	*met(C|)	*	*met(C|)	*
*all\right	*	*all\right	*	*all\right	*	*all\right	*
=1-	=1-	=1-	=1-	=1-	=1-	=1-	=1-
!	!	!	!	!LO:TX:t=P:problem:kreska pseudotaktowa	!	!	!
00r	.	1G	Ec-	0r	.	0g	Ec-
.	.	2B/	-ce	.	.	.	.
!	!	!LO:TX:t=P:problem:kreska pseudotaktowa	!	!	!	!	!
.	.	2c/	Sa-	.	.	.	.
=2-	=2-	=2-	=2-	=2-	=2-	=2-	=2-
!	!	!	!	!	!	!LO:TX:t=P:problem:kreska pseudotaktowa	!
.	.	1d	-cer-	1G	Ec-	0g	-ce
.	.	2G/	-dos	2B/	-ce	.	.
!	!	!	!	!LO:TX:t=P:problem:kreska pseudotaktowa	!	!	!
.	.	1g\	Ma-	2c/	Sa-	.	.
=3-	=3-	=3-	=3-	=3-	=3-	=3-	=3-
0r	.	.	.	1d	-cer-	00r	.
*	*	*2\right	*	*	*	*	*
!	!	!LO:TX:t=P:problem:kreska pseudotaktowa	!	!	!	!	!
.	.	2f\	.	.	.	.	.
.	.	2g,<\	-gnus	2G/	-dos	.	.
*	*	*	*ij	*	*	*	*
.	.	2e\	Ec-	1g\	Ma-	.	.
=4-	=4-	=4-	=4-	=4-	=4-	=4-	=4-
!LO:TX:t=P:problem:kreska pseudotaktowa	!	!	!	!	!	!	!
1r	.	2c/	-ce	.	.	.	.
*	*	*	*	*2\right	*	*	*
!	!	!LO:TX:t=P:problem:kreska pseudotaktowa	!	!LO:TX:t=P:problem:kreska pseudotaktowa	!	!	!
.	.	2d\	Sa-	2f\	.	.	.
!	!	!	!	!LO:TX:t=P:problem:kreska pseudotaktowa	!	!	!
1G	Ec-	2e\	-cer-	1g	-gnus	.	.
.	.	4d\	.	.	.	.	.
.	.	4c\	.	.	.	.	.
=5-	=5-	=5-	=5-	=5-	=5-	=5-	=5-
*2\right	*	*	*	*	*	*	*
!	!	!LO:SIC:v:t=custos e	!	!LO:TX:t=P:problem:kreska pseudotaktowa	!	!	!
2Bn\	-ce	2d\	.	1r	.	0g	Ec-
!LO:TX:t=P:problem:kreska pseudotaktowa	!	!LO:TX:t=P:problem:kreska pseudotaktowa	!	!	!	!	!
!	!	!LO:LB:g=original	!	!	!	!	!
2c\	Sa-	2e\	-dos	.	.	.	.
1d	-cer-	2.B/	Ma-	1G	Ec-	.	.
.	.	4c/	.	.	.	.	.
=6-	=6-	=6-	=6-	=6-	=6-	=6-	=6-
!	!	!	!	!	!	!LO:TX:t=P:problem:kreska pseudotaktowa	!
2G,<\	-dos	2e\	.	2B/	-ce	0g	-ce
!	!	!	!	!LO:TX:t=P:problem:kreska pseudotaktowa	!	!	!
1c	Ma-	2c/	.	2c/	Sa-	.	.
!	!	!LO:TX:t=P:problem:kreska pseudotaktowa	!	!	!	!	!
.	.	1G	-gnus	1d	-cer-	.	.
!LO:TX:t=P:problem:kreska pseudotaktowa	!	!	!	!	!	!	!
2Bn\	.	.	.	.	.	.	.
=7-	=7-	=7-	=7-	=7-	=7-	=7-	=7-
2c,<\	-gnus	2rA	.	2c,</	-dis	1e	Sa-
*	*ij	*	*	*	*	*	*
1C	Ec-	1c	Ec-	1e	Ec-	.	.
.	.	.	.	.	.	1g	-cer-
!LO:TX:t=P:problem:kreska pseudotaktowa	!	!LO:TX:t=P:problem:kreska pseudotaktowa	!	!LO:TX:t=P:problem:kreska pseudotaktowa	!	!	!
2C/	-ce	2c/	-ce	2e\	-ce	.	.
=8-	=8-	=8-	=8-	=8-	=8-	=8-	=8-
!	!	!	!	!	!	!LO:TX:t=P:problem:kreska pseudotaktowa	!
1F	Sa-	1A	Sa-	1f	Sa-	1a	-dos
!	!	!	!	!LO:SIC:v:t=custos d	!	!	!
2.G\	-cer-	2.B/	-cer-	2e\	-cer-	0g	Ma-
!	!	!	!	!LO:TX:t=P:problem:fragment nieczytelny, przyjęto zgodnie z custos	!	!	!
!	!	!	!	!LO:PB:g=original	!	!	!
.	.	.	.	2d.	.	.	.
!LO:SIC:v:t=custos B	!	!LO:TX:t=P:problem:kreska pseudotaktowa	!	!	!	!	!
4A\	.	4c/	.	.	.	.	.
!LO:LB:g=original	!	!	!	!	!	!	!
=9-	=9-	=9-	=9-	=9-	=9-	=9-	=9-
2Bn\	-dos	2d\	.	.	.	.	.
.	.	.	.	4c/	-dos	.	.
!LO:TX:t=P:problem:kreska pseudotaktowa	!	!	!	!	!	!	!
2c\	Ma-	2e\	-dos	1c	Ma-	.	.
!	!	!	!	!	!	!LO:TX:t=P:problem:kreska pseudotaktowa	!
1G	.	1d	Ma-	.	.	0g	-gnus
!	!	!	!	!LO:TX:t=P:problem:kreska pseudotaktowa	!	!	!
.	.	.	.	2B/	.	.	.
=10-	=10-	=10-	=10-	=10-	=10-	=10-	=10-
!LO:TX:t=P:problem:kreska pseudotaktowa	!	!	!	!	!	!	!
1C	-gnus	2e,<\	-gnus	2c,</	-gnus	.	.
*	*	*	*Xij	*	*	*	*
!	!	!LO:TX:t=P:problem:kreska pseudotaktowa	!	!	!	!	!
.	.	2c/	Ec-	2G/	Ec-	.	.
1rF	.	2e\	-ce	2c/	-ce	1r	.
!	!	!LO:SIC:v:t=custos g	!	!LO:TX:t=P:problem:kreska pseudotaktowa	!	!	!
.	.	2f\	Sa-	2d\	Sa-	.	.
!	!	!LO:LB:g=original	!	!	!	!	!
=11-	=11-	=11-	=11-	=11-	=11-	=11-	=11-
*	*	*	*	*	*	*	*ij
2rD	.	2g\	-cer-	1e	-cer-	1c	Ec-
!LO:TX:t=P:problem:kreska pseudotaktowa	!	!	!	!	!	!	!
2c\	Ec-	2.e\	-dos	.	.	.	.
!	!	!	!	!LO:TX:t=P:problem:kreska pseudotaktowa	!	!	!
2A\	-ce	.	.	1c	-dos	2e/	-ce
.	.	4d\	.	.	.	.	.
*	*	*	*	*	*	*2\right	*
!	!	!	!	!	!	!LO:TX:t=P:problem:kreska pseudotaktowa	!
!	!	!	!	!	!	!LO:SIC:v:t=custos g	!
2A\	Sa-	1c\	Ma-	.	.	2f\	Sa-
!	!	!	!	!	!	!LO:LB:g=original	!
=12-	=12-	=12-	=12-	=12-	=12-	=12-	=12-
!LO:TX:t=P:problem:kreska pseudotaktowa	!	!	!	!	!	!	!
1G	-cer-	.	.	2d\	Ma-	1g	-cer-
!	!	!LO:TX:t=P:problem:kreska pseudotaktowa	!	!	!	!	!
.	.	2B/	.	1g	.	.	.
!LO:TX:t=P:problem:kreska pseudotaktowa	!	!	!	!	!	!	!
*	*	*lig	*	*	*	*	*
1A	-dos	1c	.	.	.	2c/	-dos
.	.	.	.	2f\	.	1cc\	Ma-
=13-	=13-	=13-	=13-	=13-	=13-	=13-	=13-
!	!	!	!	!LO:TX:t=P:problem:kreska pseudotaktowa	!	!	!
1G	Ma-	1d	.	0.g	-gnus	.	.
!	!	!	!	!	!	!LO:TX:t=P:problem:kreska pseudotaktowa	!
.	.	.	.	.	.	2b\	.
*	*	*Xlig	*	*	*	*	*
!	!	!	!	!	!	!LO:TX:t=P:problem:kreska pseudotaktowa	!
2C,</	-gnus	2c,</	-gnus	.	.	0cc	-gnus
*	*Xij	*	*	*	*	*	*Xij
!LO:TX:t=P:problem:kreska pseudotaktowa	!	!LO:TX:t=P:problem:kreska pseudotaktowa	!	!	!	!	!
2c\	qui	2e\	qui	.	.	.	.
=14-	=14-	=14-	=14-	=14-	=14-	=14-	=14-
2c\	in	2e\	in	.	.	.	.
!LO:TX:t=P:problem:kreska pseudotaktowa	!	!	!	!	!	!	!
2c\	di-	2e\	di-	.	.	.	.
2A\	-e-	2c/	-e-	1r	.	2r	.
!LO:TX:t=P:problem:kreska pseudotaktowa	!	!LO:TX:t=P:problem:kreska pseudotaktowa	!	!	!	!LO:TX:t=P:problem:kreska pseudotaktowa	!
2B\	-bus	2d\	-bus	.	.	2g\	Qui
=15-	=15-	=15-	=15-	=15-	=15-	=15-	=15-
2.c\	su-	2.e\	Su-	2r	.	2g\	in
!	!	!	!	!LO:TX:t=P:problem:kreska pseudotaktowa	!	!LO:TX:t=P:problem:kreska pseudotaktowa	!
.	.	.	.	2g\	qui	2cc\	di-
8B\L	.	8d\L	.	.	.	.	.
!LO:TX:t=P:problem:kreska pseudotaktowa	!	!	!	!	!	!	!
!LO:SIC:v:t=custos G	!	!	!	!	!	!	!
8A\J	.	8c\J	.	.	.	.	.
!LO:PB:g=original	!	!	!	!	!	!	!
1G	.	1d	.	2g\	in	2cc\	-e-
!	!	!	!	!	!	!LO:TX:t=P:problem:kreska pseudotaktowa	!
.	.	.	.	2g\	di-	2b\	-bus
=16-	=16-	=16-	=16-	=16-	=16-	=16-	=16-
!	!	!LO:TX:t=P:problem:kreska pseudotaktowa	!	!	!	!	!
!	!	!LO:SIC:v:t=custos d	!	!	!	!	!
*	*	*	*	*	*	*lig	*
1A	.	1c	-is	2e\	-e-	1a	Su-
!	!	!	!	!LO:TX:t=P:problem:kreska pseudotaktowa	!	!	!
!	!	!	!	!LO:SIC:v:t=custos g	!	!	!
.	.	.	.	2f\	-bus	.	.
!LO:TX:t=P:problem:kreska pseudotaktowa	!	!	!	!	!	!	!
*	*	*	*ij	*	*	*col	*
!	!	!LO:LB:g=original	!	!LO:LB:g=original	!	!	!
1G	-is	2r	.	2.g\	Su-	2.b\	.
!	!	!LO:TX:t=P:problem:kreska pseudotaktowa	!	!	!	!	!
.	.	2d\	qui	.	.	.	.
*	*	*	*	*	*	*Xlig	*
.	.	.	.	8f\L	.	8a\L	.
!	!	!	!	!LO:TX:t=P:problem:kreska pseudotaktowa	!	!	!
.	.	.	.	8e\J	.	8g\J	.
*	*	*	*	*	*	*Xcol	*
=17-	=17-	=17-	=17-	=17-	=17-	=17-	=17-
2r	.	2d\	in	2f\	.	2a\	.
*	*ij	*	*	*	*	*	*
!LO:TX:t=P:problem:kreska pseudotaktowa	!	!LO:TX:t=P:problem:kreska pseudotaktowa	!	!	!	!LO:TX:t=P:problem:kreska pseudotaktowa	!
2G\	qui	2d\	di-	2g\	is	2b\	.
2G\	in	2B/	-e-	2d,<\	.	1g	-is
!	!	!LO:TX:t=P:problem:kreska pseudotaktowa	!	!LO:TX:t=P:problem:kreska pseudotaktowa	!	!	!
*	*	*	*	*	*ij	*	*
2E/	di-	2c/	-bus	2e\	qui	.	.
=18-	=18-	=18-	=18-	=18-	=18-	=18-	=18-
2F/	-e-	2d\	Su-	2A/	in	2r	.
*	*	*	*	*	*	*	*ij
!	!	!	!	!	!	!LO:TX:t=P:problem:kreska pseudotaktowa	!
!LO:TX:t=P:problem:kreska pseudotaktowa	!	!	!	!	!	!LO:SIC:v:t=custos g	!
2G\	-bus	2.e\	.	2B/	di-	2g\	Qui
!	!	!	!	!	!	!LO:LB:g=original	!
1A	su-	.	.	2c/	-e-	2g\	in
.	.	4d\	.	.	.	.	.
!	!	!	!	!LO:TX:t=P:problem:kreska pseudotaktowa	!	!LO:TX:t=P:problem:kreska pseudotaktowa	!
.	.	1c\	.	2c/	-bus	2f\	di-
=19-	=19-	=19-	=19-	=19-	=19-	=19-	=19-
!LO:TX:t=P:problem:kreska pseudotaktowa	!	!	!	!	!	!	!
1G	-is	.	.	1d	Su-	2.g\	-e-
!	!	!LO:TX:t=P:problem:kreska pseudotaktowa	!	!	!	!	!
.	.	2B/	.	.	.	.	.
!	!	!	!	!	!	!LO:TX:t=P:problem:kreska pseudotaktowa	!
.	.	.	.	.	.	4f\	.
2rD	.	1c	-is	2c/	.	4e\	.
.	.	.	.	.	.	4d\	.
!	!	!	!	!LO:TX:t=P:problem:kreska pseudotaktowa	!	!	!
2C/	qui	.	.	2G,</	-is	1e\	-bus
=20-	=20-	=20-	=20-	=20-	=20-	=20-	=20-
2C/	in	2rf	.	2G/	qui	.	.
!LO:TX:t=P:problem:kreska pseudotaktowa	!	!LO:TX:t=P:problem:kreska pseudotaktowa	!	!	!	!	!
2C/	di-	2g\	qui	2c/	in	4d/	.
!	!	!	!	!	!	!LO:TX:t=P:problem:kreska pseudotaktowa	!
.	.	.	.	.	.	4c/	.
2G\	-e-	2g\	in	2c/	di-	1d	Su-
!	!	!	!	!LO:TX:t=P:problem:kreska pseudotaktowa	!	!	!
2G\	-bus	2g\	di-	2B/	-e-	.	.
=21-	=21-	=21-	=21-	=21-	=21-	=21-	=21-
*	*	*	*	*lig	*	*	*
!	!	!	!	!	!	!LO:TX:t=P:problem:kreska pseudotaktowa	!
1A	su-	2e\	-e-	1c	-bus	1c	-is
!	!	!LO:TX:t=P:problem:kreska pseudotaktowa	!	!	!	!	!
!	!	!LO:SIC:v:t=custos g	!	!	!	!	!
.	.	2f\	-bus	.	.	.	.
!LO:TX:t=P:problem:kreska pseudotaktowa	!	!LO:PB:g=original	!	!	!	!	!
1G	-is	2.g\	Su-	1d	Su-	2r	.
.	.	.	.	.	.	2g\	Qui
!	!	!LO:TX:t=P:problem:kreska pseudotaktowa	!	!	!	!	!
.	.	4f\	.	.	.	.	.
*	*	*	*	*Xlig	*	*	*
=22-	=22-	=22-	=22-	=22-	=22-	=22-	=22-
!	!	!	!	!LO:TX:t=P:problem:kreska pseudotaktowa	!	!	!
!	!	!	!	!LO:SIC:v:t=custos g	!	!	!
0r	.	4e\	.	1c	-is	2g\	in
.	.	4d\	.	.	.	.	.
!	!	!	!	!	!	!LO:TX:t=P:problem:kreska pseudotaktowa	!
.	.	1e	.	.	.	2g\	di-
!	!	!	!	!LO:LB:g=original	!	!	!
.	.	.	.	1r	.	2e/	-e-
!	!	!LO:TX:t=P:problem:kreska pseudotaktowa	!	!	!	!LO:TX:t=P:problem:kreska pseudotaktowa	!
.	.	2d\	.	.	.	2f\	-bus
=23-	=23-	=23-	=23-	=23-	=23-	=23-	=23-
!LO:SIC:v:t=custos c	!	!	!	!	!	!	!
2r	.	1e	-is	2r	.	2.g\	Su-
*	*	*	*Xij	*	*	*	*
!LO:TX:t=P:problem:kreska pseudotaktowa	!	!	!	!LO:TX:t=P:problem:kreska pseudotaktowa	!	!	!
!LO:LB:g=original	!	!	!	!	!	!	!
2c\	qui	.	.	2g\	qui	.	.
.	.	.	.	.	.	4f\	.
2c\	in	2r	.	2g\	in	4e\	.
!	!	!	!	!	!	!LO:SIC:v:t=custos e	!
.	.	.	.	.	.	4d\	.
!	!	!LO:TX:t=P:problem:kreska pseudotaktowa	!	!	!	!LO:LB:g=original	!
2c\	di-	2c/	qui	2e\	di-	1e\	.
=24-	=24-	=24-	=24-	=24-	=24-	=24-	=24-
2A\	-e-	2c/	in	2f\	-e-	.	.
!LO:TX:t=P:problem:kreska pseudotaktowa	!	!	!	!LO:TX:t=P:problem:kreska pseudotaktowa	!	!LO:TX:t=P:problem:kreska pseudotaktowa	!
2B\	-bus	2.d\	di-	2f\	-bus	2d/	.
2.c\	su-	.	.	1e	Su-	2e,</	-is
.	.	4c/	-e-	.	.	.	.
.	.	1c\	-bus	.	.	2g\	Qui
8B\L	.	.	.	.	.	.	.
8A\J	.	.	.	.	.	.	.
=25-	=25-	=25-	=25-	=25-	=25-	=25-	=25-
!LO:TX:t=P:problem:kreska pseudotaktowa	!	!	!	!	!	!	!
1G	.	.	.	2d,<\	-is	1.g	in
!	!	!LO:TX:t=P:problem:kreska pseudotaktowa	!	!LO:TX:t=P:problem:kreska pseudotaktowa	!	!	!
.	.	2B/	.	2d\	qui	.	.
!LO:TX:t=P:problem:kreska pseudotaktowa	!	!	!	!	!	!	!
1C	-is	2.c/	Su-	2e\	in	.	.
*	*Xij	*	*	*	*	*	*
!	!	!	!	!	!	!LO:TX:t=P:problem:kreska pseudotaktowa	!
.	.	.	.	2e\	di-	2g\	di-
.	.	4B/	.	.	.	.	.
=26-	=26-	=26-	=26-	=26-	=26-	=26-	=26-
!LO:TX:t=P:problem:kreska pseudotaktowa	!	!	!	!LO:TX:t=P:problem:kreska pseudotaktowa	!	!	!
00r	.	1A	.	1c	-e-	(2a\	-e-
.	.	.	.	.	.	1cc)	.
!	!	!LO:TX:t=P:problem:kreska pseudotaktowa	!	!	!	!	!
.	.	(1G	.	2d\	-bus	.	.
!	!	!	!	!	!	!LO:TX:t=P:problem:kreska pseudotaktowa	!
.	.	.	.	2.g\	Su-	2b\	-bus
=27-	=27-	=27-	=27-	=27-	=27-	=27-	=27-
!	!	!	!	!	!	!LO:TX:t=P:problem:kreska pseudotaktowa	!
.	.	1d)	.	.	.	1a	Su-
.	.	.	.	8f\L	.	.	.
.	.	.	.	8e\J	.	.	.
!	!	!	!	!LO:TX:t=P:problem:kreska pseudotaktowa	!	!	!
.	.	.	.	2f\	.	.	.
!	!	!LO:TX:t=P:problem:kreska pseudotaktowa	!	!	!	!	!
!	!	!LO:SIC:v:t=custos c	!	!LO:TX:t=P:problem:kreska pseudotaktowa	!	!LO:TX:t=P:problem:kreska pseudotaktowa	!
.	.	1G	-is	1g,<	-is.	1b,<	-is
*	*	*	*	*	*Xij	*	*Xij
!	!	!LO:LB:g=original	!	!	!	!	!
=28-	=28-	=28-	=28-	=28-	=28-	=28-	=28-
1.C	pla-	1.c	pla-	1.e	pla-	1.g	pla-
!	!	!	!	!LO:SIC:v:t=custos e	!	!LO:TX:t=P:problem:kreska pseudotaktowa	!
2C/	-cu-	2c/	-cu-	2e\	-cu-	2g\	-cu-
!	!	!	!	!LO:LB:g=original	!	!	!
=29-	=29-	=29-	=29-	=29-	=29-	=29-	=29-
!LO:TX:t=P:problem:kreska pseudotaktowa	!	!LO:TX:t=P:problem:kreska pseudotaktowa	!	!LO:TX:t=P:problem:kreska pseudotaktowa	!	!	!
1C	-it	1c	-it	1e	-it	1g	-it
1F	DE-	1c	DE-	1f	DE-	1a	DE-
=30-	=30-	=30-	=30-	=30-	=30-	=30-	=30-
!	!	!	!	!	!	!LO:TX:t=P:problem:kreska pseudotaktowa	!
!LO:TX:t=P:problem:kreska pseudotaktowa	!	!	!	!	!	!LO:SIC:v:t=custos d	!
1C	-o	2c,</	-o	2e,<\	-o	1g	-o
!	!	!LO:TX:t=P:problem:kreska pseudotaktowa	!	!LO:TX:t=P:problem:kreska pseudotaktowa	!	!LO:LB:g=original	!
.	.	2G/	et	2g\	et	.	.
00r	.	2A/	in-	2f\	in-	1rf	.
.	.	1c\	-ven-	1e\	-ven-	.	.
=31-	=31-	=31-	=31-	=31-	=31-	=31-	=31-
.	.	.	.	.	.	2rd	.
!	!	!LO:TX:t=P:problem:kreska pseudotaktowa	!	!LO:TX:t=P:problem:kreska pseudotaktowa	!	!LO:TX:t=P:problem:kreska pseudotaktowa	!
.	.	2B/	-tus	2d\	-tus	2d/	et
.	.	1c	est	2c/	est	2e/	in-
.	.	.	.	1e\	iu-	1g\	-ven-
=32-	=32-	=32-	=32-	=32-	=32-	=32-	=32-
.	.	1A	iu-	.	.	.	.
!	!	!	!	!	!	!LO:TX:t=P:problem:kreska pseudotaktowa	!
.	.	.	.	4d\	.	2f\	-tus
!	!	!	!	!LO:TX:t=P:problem:kreska pseudotaktowa	!	!	!
.	.	.	.	4c\	.	.	.
!	!	!LO:TX:t=P:problem:kreska pseudotaktowa	!	!	!	!LO:TX:t=P:problem:kreska pseudotaktowa	!
2r	.	1G	-stus	1d	.	1g	est
!LO:TX:t=P:problem:kreska pseudotaktowa	!	!	!	!	!	!	!
2G\	et	.	.	.	.	.	.
=33-	=33-	=33-	=33-	=33-	=33-	=33-	=33-
!	!	!	!	!LO:TX:t=P:problem:kreska pseudotaktowa	!	!	!
2A\	in-	1rc	.	1c	stus	1e	iu-
!LO:SIC:v:t=custos B	!	!	!	!	!	!	!
1c	-ven-	.	.	.	.	.	.
!	!	!	!	!	!	!LO:TX:t=P:problem:kreska pseudotaktowa	!
.	.	2.g\	et	2r	.	1d	-stus
*	*	*	*	*	*ij	*	*
!LO:TX:t=P:problem:kreska pseudotaktowa	!	!	!	!LO:TX:t=P:problem:kreska pseudotaktowa	!	!	!
!LO:LB:g=original	!	!	!	!	!	!	!
2B\	-tus	.	.	2d\	et	.	.
!	!	!LO:TX:t=P:problem:kreska pseudotaktowa	!	!	!	!	!
.	.	4g\	in	.	.	.	.
=34-	=34-	=34-	=34-	=34-	=34-	=34-	=34-
1c	eſt	2e\	tem-	2e\	in-	00r	.
.	.	2e\	-po-	1g	-ven-	.	.
!	!	!LO:SIC:v:t=custos c	!	!	!	!	!
!	!	!LO:SIC:v:l:s=-re	!	!	!	!	!
1A	iu-	2c/	-le	.	.	.	.
!	!	!LO:TX:t=P:problem:kreska pseudotaktowa	!	!	!	!	!
!	!	!LO:LB:g=original	!	!	!	!	!
.	.	2c/	i-	2f\	-tus	.	.
=35-	=35-	=35-	=35-	=35-	=35-	=35-	=35-
!	!	!	!	!LO:TX:t=P:problem:kreska pseudotaktowa	!	!	!
!LO:TX:t=P:problem:kreska pseudotaktowa	!	!	!	!LO:SIC:v:t=custos e	!	!	!
1G	-stus	2e\	-ra-	1g	est	.	.
.	.	2.d\	-cun-	.	.	.	.
!	!	!	!	!LO:LB:g=original	!	!	!
1r	.	.	.	1e	iu-	.	.
.	.	4c/	.	.	.	.	.
.	.	1c\	.	.	.	.	.
=36-	=36-	=36-	=36-	=36-	=36-	=36-	=36-
!	!	!	!	!LO:TX:t=P:problem:kreska pseudotaktowa	!	!LO:TX:t=P:problem:kreska pseudotaktowa	!
2.G\	et	.	.	1d	-stus	1r	.
*	*	*	*	*	*Xij	*	*
!	!	!LO:TX:t=P:problem:kreska pseudotaktowa	!	!	!	!	!
.	.	2B/	di-	.	.	.	.
!LO:TX:t=P:problem:kreska pseudotaktowa	!	!	!	!	!	!	!
4G\	in	.	.	.	.	.	.
2E/	tem-	2c,</	-ae	1r	.	2.g\	et
*	*	*	*ij	*	*	*	*
2E/	-po-	2G/	et	.	.	.	.
.	.	.	.	.	.	4g\	in
=37-	=37-	=37-	=37-	=37-	=37-	=37-	=37-
!LO:SIC:v:l:s=-re	!	!	!	!	!	!	!
2C,</	-le	2G/	in	2.g\	et	2e/	tem-
!	!	!LO:TX:t=P:problem:kreska pseudotaktowa:między nutą a kropką	!	!	!	!LO:TX:t=P:problem:kreska pseudotaktowa	!
1C	i-	2.c/	tem-	.	.	2e/	-po-
!	!	!	!	!LO:TX:t=P:problem:kreska pseudotaktowa	!	!	!
.	.	.	.	4g\	in	.	.
.	.	.	.	2e\	tem-	2c/	-re
.	.	4G/	-po-	.	.	.	.
!LO:TX:t=P:problem:kreska pseudotaktowa	!	!LO:SIC:v:l:s=-re	!	!LO:TX:t=P:problem:kreska pseudotaktowa	!	!	!
2C/	-ra-	2G/	-le	2e\	-po-	2.cc\	i-
=38-	=38-	=38-	=38-	=38-	=38-	=38-	=38-
2.F/	-cun-	2A/	i-	2c,</	-re	.	.
.	.	.	.	.	.	4b\	-ra-
!	!	!LO:TX:t=P:problem:kreska pseudotaktowa	!	!	!	!LO:SIC:v:t=custos f	!
.	.	2A/	-ra-	2c/	i-	1a	-cun-
4E/	.	.	.	.	.	.	.
!	!	!	!	!LO:TX:t=P:problem:kreska pseudotaktowa	!	!	!
2D/	.	2.d\	-cun-	1f	-ra-	.	.
!	!	!	!	!	!	!LO:TX:t=P:problem:kreska pseudotaktowa	!
!	!	!	!	!	!	!LO:LB:g=original	!
2D/	-di-	.	.	.	.	2f\	.
!	!	!LO:TX:t=P:problem:kreska pseudotaktowa	!	!	!	!	!
.	.	4d\	-di-	.	.	.	.
=39-	=39-	=39-	=39-	=39-	=39-	=39-	=39-
!LO:TX:t=P:problem:kreska pseudotaktowa	!	!LO:SIC:v:t=custos g	!	!	!	!	!
*	*	*	*	*	*	*lig	*
1C	-ae	2G,</	-ae	2.e\	-cun-	1g	.
*	*	*	*Xij	*	*	*	*
!	!	!LO:LB:g=original	!	!	!	!	!
.	.	1g	et	.	.	.	.
.	.	.	.	4e\	-di-	.	.
!	!	!	!	!LO:TX:t=P:problem:kreska pseudotaktowa	!	!	!
*	*	*	*	*	*	*col	*
1rF	.	.	.	1d	-ae	2.a\	.
.	.	2f\	in	.	.	.	.
!	!	!LO:TX:t=P:problem:kreska pseudotaktowa	!	!	!	!	!
*	*	*	*	*	*	*Xlig	*
!	!	!	!	!	!	!LO:TX:t=P:problem:kreska pseudotaktowa	!
.	.	.	.	.	.	4a\	-di-
*	*	*	*	*	*	*Xcol	*
=40-	=40-	=40-	=40-	=40-	=40-	=40-	=40-
!	!	!	!	!	!	!LO:TX:t=P:problem:kreska pseudotaktowa	!
*	*ij	*	*	*	*	*	*
2.c\	et	2e\	tem-	2r	.	1g	-ae
!	!	!LO:TX:t=P:problem:kreska pseudotaktowa	!	!LO:TX:t=P:problem:kreska pseudotaktowa	!	!	!
*	*	*	*	*	*ij	*	*
.	.	2e\	-po-	2g\	et	.	.
!LO:SIC:v:t=custos A	!	!	!	!	!	!	!
4c\	in	.	.	.	.	.	.
*	*	*	*	*	*	*	*ij
!LO:LB:g=original	!	!LO:SIC:v:l:s=-re	!	!	!	!	!
2A\	tem-	2c,</	-le	4f\	in	2.cc\	et
.	.	.	.	2e\	tem-	.	.
!LO:TX:t=P:problem:kreska pseudotaktowa	!	!	!	!	!	!	!
2A\	-po-	1c\	i-	.	.	.	.
!	!	!	!	!LO:TX:t=P:problem:kreska pseudotaktowa	!	!	!
.	.	.	.	4e\	-po-	4cc\	in
=41-	=41-	=41-	=41-	=41-	=41-	=41-	=41-
!LO:SIC:v:l:s=-re	!	!	!	!	!	!	!
2F/	-le	.	.	2f\	-re	2a\	tem-
!	!	!LO:TX:t=P:problem:kreska pseudotaktowa	!	!LO:SIC:v:t=custos c	!	!LO:TX:t=P:problem:kreska pseudotaktowa	!
1F	i-	2c/	-ra-	1f	i-	2a\	-po-
.	.	2d\	-cun-	.	.	2f\	-re
!	!	!	!	!LO:TX:t=P:problem:kreska pseudotaktowa	!	!	!
!	!	!	!	!LO:LB:g=original	!	!	!
2F/	-ra-	(1A/	.	2c/	-ra-	1a\	i-
=42-	=42-	=42-	=42-	=42-	=42-	=42-	=42-
*lig	*	*	*	*	*	*	*
1D	-cun-	.	.	1f	-cun-	.	.
!	!	!	!	!	!	!LO:TX:t=P:problem:kreska pseudotaktowa	!
.	.	1d)	.	.	.	2a\	-ra-
*col	*	*	*	*	*	*	*
!	!	!	!	!LO:TX:t=P:problem:kreska pseudotaktowa	!	!	!
2.A\	.	.	.	1e	-di-	1.a	-cun-
!	!	!LO:TX:t=P:problem:kreska pseudotaktowa	!	!	!	!	!
.	.	2c/	-di-	.	.	.	.
*Xlig	*	*	*	*	*	*	*
4A\	-di-	.	.	.	.	.	.
*Xcol	*	*	*	*	*	*	*
=43-	=43-	=43-	=43-	=43-	=43-	=43-	=43-
!LO:TX:t=P:problem:kreska pseudotaktowa	!	!	!	!	!	!	!
1D	-ae	2d,<\	-ae	2d,<\	-ae	.	.
*	*Xij	*	*	*	*Xij	*	*
.	.	2.A/	i-	1f	fac-	2a\	-di-
!	!	!	!	!	!	!LO:TX:t=P:problem:kreska pseudotaktowa	!
00r	.	.	.	.	.	1a	-ae
*	*	*	*	*	*	*	*Xij
.	.	4B/	.	.	.	.	.
!	!	!	!	!LO:TX:t=P:problem:kreska pseudotaktowa	!	!	!
.	.	4c/	.	2e\	-tus	.	.
!	!	!LO:TX:t=P:problem:kreska pseudotaktowa	!	!	!	!	!
.	.	4A/	.	.	.	.	.
=44-	=44-	=44-	=44-	=44-	=44-	=44-	=44-
.	.	2d\	.	2f\	est	2r	.
!	!	!LO:SIC:v:t=custos A	!	!	!	!	!
.	.	2d\	-ra-	2.d\	re-	1f	fac-
!	!	!LO:LB:g=original	!	!	!	!	!
.	.	2.A/	.	.	.	.	.
.	.	.	.	4d\	-con-	.	.
!	!	!	!	!LO:TX:t=P:problem:kreska pseudotaktowa	!	!LO:TX:t=P:problem:kreska pseudotaktowa	!
.	.	.	.	2c/	-ci-	2e/	-tus
!	!	!LO:TX:t=P:problem:kreska pseudotaktowa	!	!	!	!	!
.	.	4G/	.	.	.	.	.
=45-	=45-	=45-	=45-	=45-	=45-	=45-	=45-
!	!	!	!	!	!	!LO:SIC:v:t=custos d	!
.	.	1F	-cun-	4d\	-li-	1f	eſt
.	.	.	.	4c/	.	.	.
.	.	.	.	1c	-a-	.	.
!LO:TX:t=P:problem:kreska pseudotaktowa	!	!	!	!	!	!LO:LB:g=original	!
1r	.	1G	-di-	.	.	2.d/	re-
!	!	!	!	!LO:TX:t=P:problem:kreska pseudotaktowa	!	!	!
.	.	.	.	2B/	-ti-	.	.
!	!	!	!	!	!	!LO:TX:t=P:problem:kreska pseudotaktowa	!
.	.	.	.	.	.	4e/	.
=46-	=46-	=46-	=46-	=46-	=46-	=46-	=46-
!	!	!LO:TX:t=P:problem:kreska pseudotaktowa	!	!LO:TX:t=P:problem:kreska pseudotaktowa	!	!	!
1.F	fac-	1A	-ae	0c	-o	4f\	.
.	.	.	.	.	.	4g\	.
.	.	.	.	.	.	1a	.
.	.	2rA	.	.	.	.	.
!LO:TX:t=P:problem:kreska pseudotaktowa	!	!	!	!	!	!LO:TX:t=P:problem:kreska pseudotaktowa	!
2E/	-tus	1c\	fac-	.	.	2g\	-con-
=47-	=47-	=47-	=47-	=47-	=47-	=47-	=47-
2F/	est	.	.	0r	.	2c/	-ci-
!LO:TX:t=P:problem:kreska pseudotaktowa	!	!LO:TX:t=P:problem:kreska pseudotaktowa	!	!	!	!LO:TX:t=P:problem:kreska pseudotaktowa	!
2D/	re-	2B/	-tus	.	.	2f\	-li-
2C/	-con-	2c/	est	.	.	2e/	-a-
!LO:TX:t=P:problem:kreska pseudotaktowa	!	!	!	!	!	!	!
2D/	-ci-	2A/	re-	.	.	2d/	-ti-
=48-	=48-	=48-	=48-	=48-	=48-	=48-	=48-
!	!	!	!	!	!	!LO:TX:t=P:problem:kreska pseudotaktowa	!
2E/	-li-	2G/	-con-	2r	.	0c	-o
*	*	*	*	*	*ij	*	*
!	!	!LO:TX:t=P:problem:kreska pseudotaktowa:między nuta a kropką	!	!	!	!	!
2.F/	-a-	2.A/	-ci-	1f	fac-	.	.
4E/	.	4B/	-li-	.	.	.	.
!LO:TX:t=P:problem:kreska pseudotaktowa	!	!	!	!	!	!	!
!LO:SIC:v:t=custos D	!	!	!	!LO:TX:t=P:problem:kreska pseudotaktowa	!	!	!
2C/	.	1c\	.	2e\	-tus	.	.
!LO:LB:g=original	!	!	!	!	!	!	!
=49-	=49-	=49-	=49-	=49-	=49-	=49-	=49-
!	!	!	!	!LO:SIC:v:t=custos d	!	!LO:TX:t=P:problem:kreska pseudotaktowa	!
2.D/	.	.	.	2f\	est	1rf	.
!	!	!LO:TX:t=P:problem:kreska pseudotaktowa	!	!LO:TX:t=P:problem:kreska pseudotaktowa	!	!	!
!	!	!	!	!LO:LB:g=original	!	!	!
.	.	2B/	.	2d\	re-	.	.
4D/	-ti-	.	.	.	.	.	.
!LO:TX:t=P:problem:kreska pseudotaktowa	!	!	!	!	!	!	!
1C	-o	2.c/	.	2e\	-con-	2r	.
*	*	*	*	*	*	*	*ij
.	.	.	.	1e\	-ci-	1g\	fac-
.	.	4B/	.	.	.	.	.
=50-	=50-	=50-	=50-	=50-	=50-	=50-	=50-
2r	.	2A/	-a-	.	.	.	.
*	*ij	*	*	*	*	*	*
!	!	!LO:TX:t=P:problem:kreska pseudotaktowa	!	!	!	!	!
!	!	!LO:SIC:v:t=custos G	!	!LO:TX:t=P:problem:kreska pseudotaktowa	!	!LO:TX:t=P:problem:kreska pseudotaktowa	!
1c	fac-	2A/	-ti-	2c/	-li-	2f\	-tus
!	!	!LO:TX:t=P:problem:kreska pseudotaktowa	!	!	!	!	!
!	!	!LO:LB:g=original	!	!	!	!	!
.	.	1G	-o	2.d\	-a-	2g\	eſt
!LO:TX:t=P:problem:kreska pseudotaktowa	!	!	!	!	!	!LO:TX:t=P:problem:kreska pseudotaktowa	!
2B\	-tus	.	.	.	.	2d/	re-
.	.	.	.	4d\	-ti-	.	.
=51-	=51-	=51-	=51-	=51-	=51-	=51-	=51-
!	!	!LO:TX:a:t=3	!	!LO:TX:t=P:problem:kreska pseudotaktowa	!	!	!
2c\	est	0r	.	1c	-o	2e/	-con-
!	!	!	!	!	!	!LO:TX:t=P:problem:kreska pseudotaktowa	!
!LO:TX:t=P:problem:kreska pseudotaktowa	!	!	!	!	!	!LO:SIC:v:t=custos d	!
2A\	de-	.	.	.	.	2f\	-ci-
!	!	!	!	!	!	!LO:LB:g=original	!
2B\	-con-	.	.	2r	.	2d/	-li-
1c\	-ci-	.	.	2g\	fac-	2.e/	-a-
=52-	=52-	=52-	=52-	=52-	=52-	=52-	=52-
.	.	1r	.	2c/	-tus	.	.
.	.	.	.	.	.	4f\	.
!LO:TX:t=P:problem:kreska pseudotaktowa	!	!	!	!LO:TX:t=P:problem:kreska pseudotaktowa	!	!	!
2B\	-li-	.	.	2d\	est	1g	.
2.A\	-a-	2r	.	2e\	re-	.	.
!	!	!	!	!LO:TX:t=P:problem:kreska pseudotaktowa	!	!LO:TX:t=P:problem:kreska pseudotaktowa	!
*	*	*	*ij	*	*	*	*
.	.	1c\	fac-	2c/	-con-	2f\	-ti-
4A\	-ti-	.	.	.	.	.	.
=53-	=53-	=53-	=53-	=53-	=53-	=53-	=53-
!LO:TX:t=P:problem:kreska pseudotaktowa	!	!	!	!	!	!LO:TX:t=P:problem:kreska pseudotaktowa	!
1G	-o	.	.	2.d\	-ci-	1g	-o
*	*	*	*	*	*	*	*Xij
!	!	!LO:TX:t=P:problem:kreska pseudotaktowa	!	!	!	!	!
.	.	2B/	-tus	.	.	.	.
!	!	!	!	!LO:TX:t=P:problem:kreska pseudotaktowa	!	!	!
.	.	.	.	4d\	-li-	.	.
2r	.	2c/	est	2e\	-a-	1r	.
!LO:TX:t=P:problem:kreska pseudotaktowa	!	!	!	!LO:TX:t=P:problem:kreska pseudotaktowa	!	!	!
2F/	fac-	2A/	re-	2f\	-ti-	.	.
=54-	=54-	=54-	=54-	=54-	=54-	=54-	=54-
2G\	-tus	2B/	-con-	2d,<\	-o	2r	.
*	*	*	*	*	*Xij	*	*
!	!	!LO:TX:t=P:problem:kreska pseudotaktowa	!	!LO:SIC:v:t=custos g	!	!	!
2A\	est	2c/	-ci-	1a	fa-	1cc	fac-
2F/	re-	1d	-li-	.	.	.	.
!LO:TX:t=P:problem:kreska pseudotaktowa	!	!	!	!	!	!	!
!LO:SIC:v:t=custos A	!	!	!	!LO:LB:g=original	!	!LO:TX:t=P:problem:kreska pseudotaktowa	!
2G\	-con-	.	.	4g\	.	2b\	-tus
!	!	!	!	!LO:TX:t=P:problem:kreska pseudotaktowa	!	!	!
.	.	.	.	4f\	.	.	.
!LO:LB:g=original	!	!	!	!	!	!	!
=55-	=55-	=55-	=55-	=55-	=55-	=55-	=55-
2A\	-ci-	2.c/	-a-	2e\	.	2cc\	eſt
2A\	-li-	.	.	2f\	ctus	1a	fac-
!	!	!LO:TX:t=P:problem:kreska pseudotaktowa	!	!	!	!	!
.	.	4c/	-ti-	.	.	.	.
!	!	!	!	!LO:TX:t=P:problem:kreska pseudotaktowa	!	!	!
2.B-X\	-a-	2d,<\	-o	1d	est	.	.
!	!	!	!	!	!	!LO:TX:t=P:problem:kreska pseudotaktowa	!
.	.	2d\	fac-	.	.	2g\	-tus
!LO:TX:t=P:problem:kreska pseudotaktowa	!	!	!	!	!	!	!
4B-\	-ti-	.	.	.	.	.	.
=56-	=56-	=56-	=56-	=56-	=56-	=56-	=56-
2A,<\	-o	2c/	-tus	2e\	re-	2a\	est
*	*Xij	*	*	*	*	*	*
!LO:TX:t=P:problem:kreska pseudotaktowa	!	!LO:TX:t=P:problem:kreska pseudotaktowa	!	!	!	!LO:TX:t=P:problem:kreska pseudotaktowa	!
2F/	fac-	2A/	est	2a\	-con-	2cc\	Re-
2G\	-tus	2B/	re-	2g\	-ci-	2b\	-con-
!	!	!	!	!LO:TX:t=P:problem:kreska pseudotaktowa	!	!	!
2A\	est	1c\	-con-	2e\	-li-	2.a\	-ci-
=57-	=57-	=57-	=57-	=57-	=57-	=57-	=57-
2F/	re-	.	.	4f\	-a-	.	.
.	.	.	.	4e\	.	4g\	-li-
!LO:TX:t=P:problem:kreska pseudotaktowa	!	!	!	!	!	!	!
2G\	-con-	2B/	-ci-	4d\	.	1g	-a-
!	!	!	!	!LO:TX:t=P:problem:kreska pseudotaktowa	!	!	!
.	.	.	.	4c\	.	.	.
1D	-ci-	1A	-li-	1.d	.	.	.
.	.	.	.	.	.	2f\	.
=58-	=58-	=58-	=58-	=58-	=58-	=58-	=58-
2A\	-li-	1G	-a-	.	.	0g	-ti-
1C	-a-	.	.	1e	.	.	.
.	.	1.c	.	.	.	.	.
!	!	!	!	!LO:TX:t=P:problem:kreska pseudotaktowa	!	!	!
2C/	-ti-	.	.	2e\	-ti-	.	.
=59-	=59-	=59-	=59-	=59-	=59-	=59-	=59-
[0Gl;;	-o	.	.	[0dl;;	-o	[0gl;;	-o
.	.	2B/	-ti-	.	.	.	.
.	.	[1Bl;;	-o	.	.	.	.
*	*	*	*Xij	*	*	*	*
=60-	=60-	=60-	=60-	=60-	=60-	=60-	=60-
0G]	.	0B]	.	0d]	.	0g]	.
==	==	==	==	==	==	==	==
*-	*-	*-	*-	*-	*-	*-	*-
!!!system-decoration: [g1]
!!!RDF**kern: > = above
!!!RDF**kern: < = below
!!!RDF**kern: l = terminal long
!!!AIN: 1 alto 1 empty 1 tenor 1 vox
!!!ENC: Andrzej Kubiczek
!!!END: 2021-03-27
!!!ENC: Berenika Jozajtis
!!!END: 2021-03-22
